X:1
T:Title
L:1/8
M:4/4
K:Eb
V:1 treble nm="Grand Piano"
V:1
 z4 z[Q:1/4=100] E2 D | C2 C2- C =B,2 C | D2 D2- D F2 =E | F2 D2- D E2 A | G4- G c2 c | %5
 cB d2- d c2 B | BA A2- A A2 A | G2 c2- c =B2 c |[M:5/8] d-d- d3 |[M:3/8] e2 d | %10
[M:4/4] c2 c2- ccBc | d2 B2- B d2 c | B2 B2- B B2 G | A4- A c2 B | BA A2- A B2 A | AG G2- G D2 E | %16
 F2 G2- G A2 G | =B2 cd e e2 d | c2 c2- ccBc | d2 B2- B d2 c | B2 B2- B B2 G | A4- A c2 B | %22
 BA A2- A B2 A | AG G2- G G2 F | G2 D2- D =B,2 D | C6 z2 |] %26

